!!!!SEGMENT: pl-cz--ii-188--005_orllowski-michall--missa-ex-g-qui-tollis.krn
!!!cenid: 17xx:1009
!!!COM: Orłowski, Michał
!!!COM-rismid: pe30020336
!!!CDT: ~1700-~1799
!!!CNT:
!!!OPR: Missa ex G
!!!OTL: Qui tollis
!!!OMV: 005
!!!PDT:
!!!AGN: Sacred; Mass
!!!SMS-siglum: PL-CZ
!!!SMS-shelfmark: II-188
!!!SMS-shelfwork: 001-005 M
!!!SMS-variant:
!!!SMS-altvar:
!!!NIFC-rismid: 300000944
!!!URL-scan: http://repozytorium.nifc.pl/skany/pl-cz-nut--ii-188
!!!ONB-nifc: UWAGA: części Mszy: Kyrie, Gloria, Laudamus, Domine deus, Qui tollis, Quoniam, Cum santo, Patrem, Et incarnaus, Et resurrexit, Sanctus, Benedictus, Agnus dei. UWAGA: w niektórych głosach części zapisane w innej kolejności
!!!key: G
**kern	**dynam	**kern	**dynam	**kern	**dynam	**kern	**text	**kern	**text	**kern	**text	**kern	**kern
*group4	*	*group3	*	*group3	*	*group2	*	*group2	*	*group2	*	*group1	*group1
*part8	*part8	*part7	*part7	*part6	*part6	*part5	*part5	*part4	*part4	*part3	*part3	*part2	*part1
*staff8	*	*staff7	*	*staff6	*	*staff5	*staff5	*staff4	*staff4	*staff3	*staff3	*staff2	*staff1
*I"Fundamento.	*	*I"Violino Secundo.	*	*I"Violino Primo.	*	*I"Baſso.	*	*I"Canto 2do:	*	*I"Canto 1mo:	*	*I"Cornu 2do. in G.	*I"Cornu Imo. in G.
*I'[Org]	*	*I'[Vl 2]	*	*I'[Vl 1]	*	*I'[B]	*	*I'[S 2]	*	*I'[S 1]	*	*I'[Cor 2 in G]	*I'[Cor 1 in G]
*Iorgan	*	*Ivioln	*	*Ivioln	*	*Ibass	*	*Isoprn	*	*Isoprn	*	*Icor	*Icor
*ICklav	*	*ICstr	*	*ICstr	*	*ICvox	*	*ICvox	*	*ICvox	*	*ICbras	*ICbras
*IGacmp	*	*IGacmp	*	*IGacmp	*	*IGcoro	*	*IGcoro	*	*IGcoro	*	*IGacmp	*IGacmp
*clefF4	*	*clefG2	*	*clefG2	*	*clefF4	*	*clefC1	*	*clefC1	*	*clefG2	*clefG2
*	*	*	*	*	*	*	*	*	*	*	*	*ITrd3c5	*ITrd3c5
*k[f#]	*	*k[f#]	*	*k[f#]	*	*k[f#]	*	*k[f#]	*	*k[f#]	*	*k[f#]	*k[f#]
*e:	*	*e:	*	*e:	*	*e:	*	*e:	*	*e:	*	*e:	*e:
*M2/2	*	*M2/2	*	*M2/2	*	*M2/2	*	*M2/2	*	*M2/2	*	*M2/2	*M2/2
*met(c|)	*	*met(c|)	*	*met(c|)	*	*met(c|)	*	*met(c|)	*	*met(c|)	*	*met(c|)	*met(c|)
=1	=1	=1	=1	=1	=1	=1	=1	=1	=1	=1	=1	=1	=1
*2\right	*	*2\right	*	*2\right	*	*2\right	*	*2\right	*	*2\right	*	*	*
!LO:TX:t=P:problem:all\right:global	!	!LO:TX:t=P:problem:all\right:global	!	!LO:TX:t=P:problem:all\right:global	!	!LO:TX:t=P:problem:all\right:global	!	!LO:TX:t=P:problem:all\right:global	!	!LO:TX:t=P:problem:all\right:global	!	!	!
!LO:TX:a:t=Qui tollis	!	!LO:TX:a:t=Qui tollis.	!	!LO:TX:a:t=Qui tollis.	!	!	!	!	!	!	!	!	!
!LO:TX:a:t=Adagio	!	!LO:TX:a:t=Adagio.	!	!LO:TX:a:t=Adagio.	!	!LO:TX:a:t=Adagio.	!	!LO:TX:a:t=Adagio.	!	!LO:TX:a:t=Adagio.	!	!LO:TX:t=P:problem:część nieoznaczona w jakikolwiek sposób	!LO:TX:t=P:problem:część nieoznaczona w jakikolwiek sposób
4E\	.	4g/	.	4ee\	.	4E\	Qui	4g/	Qui	4ee\	qui	1ryy	1ryy
4E\	.	4g/	.	4ee\	.	4E\	tol-	4g/	to-	4ee\	to-	.	.
4E\	.	4g/	.	4ee\	.	4E\	-lis	4g/	-lis	4ee\	-lis	.	.
4E\	.	4g/	.	4ee\	.	4E\	pec-	4g/	pec-	4ee\	pec-	.	.
=2	=2	=2	=2	=2	=2	=2	=2	=2	=2	=2	=2	=2	=2
4E\	.	4g/	.	4ee\	.	2.E\	-ca-	2.g/	-ca-	2.ee\	-ca-	1ryy	1ryy
4E\	.	4g/	.	4ee\	.	.	.	.	.	.	.	.	.
4E\	.	4g/	.	4ee\	.	.	.	.	.	.	.	.	.
4E\	.	4g/	.	4ee\	.	4E\	-ta	4g/	-ta	4ee\	-ta	.	.
=3	=3	=3	=3	=3	=3	=3	=3	=3	=3	=3	=3	=3	=3
2B\	.	2g/	.	2ee\	.	2B\	mun-	2g/	mun-	2ee\	mun-	1ryy	1ryy
2BB;>/	.	2f#;>/	.	2dd#X;>\	.	2BB;>/	-di	2f#;>/	-di	2dd#X;>\	-di	.	.
=4	=4	=4	=4	=4	=4	=4	=4	=4	=4	=4	=4	=4	=4
!	!	!	!	!	!	!LO:SIC:s=4D#	!	!	!	!	!	!	!
4D#X/	.	4a/	.	4ff#\	.	4D/	mi-	4a\	Mi-	4ff#\	mi-	1ryy	1ryy
!	!	!	!	!	!	!LO:SIC:s=4D#	!	!	!	!	!	!	!
4D#/	.	4a/	.	4ff#\	.	4D/	-se-	4a\	-se-	4ff#\	-se-	.	.
!	!	!	!	!	!	!LO:SIC:s=4D#	!	!	!	!	!	!	!
4D#/	.	4a/	.	4ff#\	.	4D/	-re-	4a\	-re-	4ff#\	-re-	.	.
!	!	!	!	!	!	!LO:SIC:s=4D#	!	!	!	!	!	!	!
4D#/	.	4a/	.	4ff#\	.	4D/	-re	4a\	-re	4ff#\	-re	.	.
=5	=5	=5	=5	=5	=5	=5	=5	=5	=5	=5	=5	=5	=5
!LO:SIC:s=4D#	!	!	!	!	!	!	!	!	!	!	!	!	!
4D/	.	4a/	.	4ff#\	.	1D#X	no-	1a	no-	1ff#	no-	1ryy	1ryy
!LO:SIC:s=4D#	!	!	!	!	!	!	!	!	!	!	!	!	!
4D/	.	4a/	.	4ff#\	.	.	.	.	.	.	.	.	.
!LO:SIC:s=4D#	!	!	!	!	!	!	!	!	!	!	!	!	!
4D/	.	4a/	.	4ff#\	.	.	.	.	.	.	.	.	.
!LO:SIC:s=4D#	!	!	!	!	!	!	!	!	!	!	!	!	!
4D/	.	4a/	.	4ff#\	.	.	.	.	.	.	.	.	.
=6	=6	=6	=6	=6	=6	=6	=6	=6	=6	=6	=6	=6	=6
1E;>	.	1g;>	.	1ee;>	.	1E;>	-bis.	1g;>	-bis	1ee;>	-bis.	1ryy	1ryy
!LO:LB:g=original	!	!	!	!	!	!	!	!	!	!	!	!	!
=7	=7	=7	=7	=7	=7	=7	=7	=7	=7	=7	=7	=7	=7
4E\	.	4b/	.	4gg\	.	4E\	mi-	4b\	Mi-	4gg\	mi-	1ryy	1ryy
4E\	.	4b/	.	4gg\	.	4E\	-ſe-	4b\	-se-	4gg\	-se-	.	.
4A\	.	4a/	.	4ff#\	.	4A\	-re-	4a\	-re-	4ff#\	-re-	.	.
4A#X\	.	4g/	.	4ee\	.	4A#X\	-re	4g\	-re	4ee\	-re	.	.
!	!	!LO:LB:g=original	!	!LO:LB:g=original	!	!	!	!	!	!LO:LB:g=original	!	!	!
=8	=8	=8	=8	=8	=8	=8	=8	=8	=8	=8	=8	=8	=8
4B\	.	2g/	.	2ee\	.	2B\	no-	2g/	no-	2ee\	no-	1ryy	1ryy
4B\	.	.	.	.	.	.	.	.	.	.	.	.	.
!	!	!	!	!	!	!	!	!LO:SIC:s=2f#	!	!	!	!	!
4BB/	.	2f#/	.	2dd#X\	.	2BB/	.	2g/	.	2dd#X\	.	.	.
4BB/	.	.	.	.	.	.	.	.	.	.	.	.	.
!	!	!	!	!	!	!LO:LB:g=original	!	!LO:LB:g=original	!	!	!	!	!
=9	=9	=9	=9	=9	=9	=9	=9	=9	=9	=9	=9	=9	=9
!	!LO:DY:b:B:t=pia	!	!LO:DY:b:B:t=pia	!	!	!	!	!	!	!	!	!	!
4E\	p	4g/	p	4ee\	.	4E\	-bis	4g/	-bis	4ee\	-bis	1ryy	1ryy
!	!	!	!	!LO:TX:t=P:problem:laska słabo widoczna	!	!	!	!	!	!	!	!	!
4E\	.	4g/	.	4b/	.	4r	.	4g/	Sus-	4b\	Sus-	.	.
!	!	!	!	!LO:TX:t=P:problem:laska słabo widoczna	!LO:DY:b:B:t=pia	!	!	!	!	!	!	!	!
4G\	.	4g/	.	4b/	p	2r	.	4g/	-ci-	4b\	.	.	.
4E\	.	8f#/L	.	8a/L	.	.	.	8f#/L	-pe	8a\	-ci-	.	.
.	.	8e/J	.	8g/J	.	.	.	8e/J	.	8g/	-pe	.	.
=10	=10	=10	=10	=10	=10	=10	=10	=10	=10	=10	=10	=10	=10
!	!	!	!	!	!	!LO:TX:t=P:problem:brak oznaczonej liczby pauzujących taktów	!	!	!	!	!	!	!
4r	.	4.f#/	.	4.a/	.	1r	.	4.f#/	Sus-	4.a\	Sus-	1ryy	1ryy
4BB/	.	.	.	.	.	.	.	.	.	.	.	.	.
.	.	8f#/	.	8a/	.	.	.	8f#/	-ci-	8a\	-ci-	.	.
4D#X/	.	2f#/	.	2a/	.	.	.	2f#/	-pe	2a\	-pe	.	.
4BB/	.	.	.	.	.	.	.	.	.	.	.	.	.
=11	=11	=11	=11	=11	=11	=11	=11	=11	=11	=11	=11	=11	=11
4r	.	4f#/	.	4a/	.	1r	.	4f#/	de-	4a\	de-	1ryy	1ryy
4BB/	.	4f#/	.	4a/	.	.	.	4f#/	-pre-	4a\	-pre-	.	.
4D#X/	.	8a/L	.	8cc/L	.	.	.	8a/L	-Ca-	8cc\L	-Ca-	.	.
.	.	8f#/	.	8a/	.	.	.	8f#/	.	8a\	.	.	.
4BB/	.	8e/	.	8g/	.	.	.	8e/	.	8g\	-ti-	.	.
.	.	8d#X/J	.	8f#/J	.	.	.	8d#X/J	-ti-	8f#\J	.	.	.
=12	=12	=12	=12	=12	=12	=12	=12	=12	=12	=12	=12	=12	=12
4r	.	4e/	.	4g/	.	1r	.	2e/	-o-	2g\	-O-	1ryy	1ryy
4E\	.	4e/	.	4g/	.	.	.	.	.	.	.	.	.
4G\	.	4e/	.	4g/	.	.	.	2e/	-nem	2g\	-nem	.	.
4E\	.	4e/	.	4g/	.	.	.	.	.	.	.	.	.
=13	=13	=13	=13	=13	=13	=13	=13	=13	=13	=13	=13	=13	=13
4BB/	.	4d#X/	.	4f#/	.	1r	.	4d#X/	noſ-	4f#/	no-	1ryy	1ryy
4r	.	4e/	.	4g/	.	.	.	4e/	.	4g/	.	.	.
4r	.	4f#/	.	4a/	.	.	.	4f#/	.	4a/	.	.	.
4E\	.	4e/	.	4g/	.	.	.	4e/	.	4g/	.	.	.
!	!	!	!	!	!	!	!	!	!	!LO:LB:g=original	!	!	!
=14	=14	=14	=14	=14	=14	=14	=14	=14	=14	=14	=14	=14	=14
4B\	.	4e/	.	4gT>/	.	2r	.	4e/	.	4g/	-ſtram	1ryy	1ryy
!	!	!LO:TX:t=P:problem:krzyżyk za nutą	!	!	!	!	!	!	!	!	!	!	!
4BB/	.	4d#X/	.	4f#/	.	.	.	4d#X/	-tram	4f#/	.	.	.
2B\	.	2r	.	2r	.	2B\	Qui	2r	.	2r	.	.	.
!LO:LB:g=original	!	!	!	!	!	!	!	!	!	!	!	!	!
=15	=15	=15	=15	=15	=15	=15	=15	=15	=15	=15	=15	=15	=15
!	!	!LO:TX:t=P:problem:brak oznaczonej liczby pauzujących taktów	!	!LO:TX:a:t=5.	!	!	!	!LO:TX:t=P:problem:brak oznaczonej liczby pauzujących taktów	!	!LO:TX:t=P:problem:liczba pauzujących taktów jest nieoznaczona	!	!	!
2c\	.	1r	.	1r	.	2c\	Se-	1r	.	1r	.	1ryy	1ryy
2D#X/	.	.	.	.	.	2D#X/	-des	.	.	.	.	.	.
=16	=16	=16	=16	=16	=16	=16	=16	=16	=16	=16	=16	=16	=16
1A	.	1r	.	1r	.	1A	Se-	1r	.	1r	.	1ryy	1ryy
=17	=17	=17	=17	=17	=17	=17	=17	=17	=17	=17	=17	=17	=17
2G\	.	2r	.	1r	.	2G\	-des	2r	.	1r	.	1ryy	1ryy
4r	.	2b\	.	.	.	2r	.	2b\	Qui	.	.	.	.
4r	.	.	.	.	.	.	.	.	.	.	.	.	.
!	!	!LO:LB:g=original	!	!	!	!	!	!	!	!	!	!	!
=18	=18	=18	=18	=18	=18	=18	=18	=18	=18	=18	=18	=18	=18
!LO:TX:a:t=1.	!	!	!	!	!	!	!	!	!	!	!	!	!
1r	.	2cc\	.	1r	.	1r	.	2cc\	Se-	1r	.	1ryy	1ryy
.	.	2d#X/	.	.	.	.	.	2d#X/	.	.	.	.	.
=19	=19	=19	=19	=19	=19	=19	=19	=19	=19	=19	=19	=19	=19
2r	.	4e/	.	1r	.	2r	.	4e/	.	1r	.	1ryy	1ryy
.	.	8b/L	.	.	.	.	.	8b\L	.	.	.	.	.
.	.	8a/J	.	.	.	.	.	8a\J	.	.	.	.	.
2E\	.	8g/L	.	.	.	2E\	qui	8g\L	.	.	.	.	.
.	.	8a/J	.	.	.	.	.	8a\J	.	.	.	.	.
.	.	4b/	.	.	.	.	.	4b\	.	.	.	.	.
!	!	!	!	!LO:PB:g=original	!	!	!	!	!	!	!	!	!
=20	=20	=20	=20	=20	=20	=20	=20	=20	=20	=20	=20	=20	=20
!	!	!	!	!LO:TX:t=P:problem:od tego miejsca przepisuję ze skanu 033	!	!	!	!	!	!	!	!	!
4E\	.	2cc\	.	2r	.	4E\	Se-	2cc\	.	2r	.	1ryy	1ryy
4G\	.	.	.	.	.	4G\	.	.	.	.	.	.	.
4F#\	.	4b\	.	[<2gg\	.	4F#\	.	4b\	.	2gg\	Se-	.	.
4E\	.	[<4ee\	.	.	.	4E\	.	4g/	.	.	.	.	.
=21	=21	=21	=21	=21	=21	=21	=21	=21	=21	=21	=21	=21	=21
4B\	.	2ee\]	.	2gg\]	.	2B\	.	2ee\	.	2gg\	.	1ryy	1ryy
4B\	.	.	.	.	.	.	.	.	.	.	.	.	.
4BB/	.	2dd#X\	.	2ff#\	.	2BB/	-des	2dd#X\	-des	2ff#\	-des	.	.
4BB/	.	.	.	.	.	.	.	.	.	.	.	.	.
=22	=22	=22	=22	=22	=22	=22	=22	=22	=22	=22	=22	=22	=22
4BB/	.	4dd#X\	.	4ff#\	.	4BB/	ad	4dd#X\	ad	4ff#\	ad	1ryy	1ryy
4BB/	.	4dd#\	.	4ff#\	.	4BB/	dex-	4dd#\	dex-	4ff#\	dex-	.	.
!	!	!	!	!	!	!LO:LB:g=original	!	!	!	!	!	!	!
4BB/	.	4dd#\	.	4ff#\	.	4BB/	-te-	4dd#\	-te-	4ff#\	-te-	.	.
4BB/	.	4dd#\	.	4ff#\	.	4BB/	-ram	4dd#\	-ram	4ff#\	-ram	.	.
=23	=23	=23	=23	=23	=23	=23	=23	=23	=23	=23	=23	=23	=23
!	!	!LO:SIC:s=4dd#	!	!	!	!	!	!	!	!	!	!	!
4BB/	.	4dd\	.	4ff#\	.	2BB/	pa-	2dd\	Pa-	2ff#\	Pa-	1ryy	1ryy
!	!	!LO:SIC:s=4dd#	!	!	!	!	!	!	!	!	!	!	!
4BB/	.	4dd\	.	4ff#\	.	.	.	.	.	.	.	.	.
!	!	!LO:SIC:s=4dd#	!	!	!	!	!	!LO:LB:g=original	!	!	!	!	!
4BB/	.	4dd\	.	4ff#\	.	2BB/	-tris	2dd\	-tris	2ff#\	-tris	.	.
!	!	!LO:SIC:s=4dd#	!	!	!	!	!	!	!	!	!	!	!
4BB/	.	4dd\	.	4ff#\	.	.	.	.	.	.	.	.	.
=24	=24	=24	=24	=24	=24	=24	=24	=24	=24	=24	=24	=24	=24
4E\	.	4b/	.	4gg\	.	4E\	mi-	4b\	mi-	4gg\	mi-	1ryy	1ryy
4E\	.	4b/	.	4gg\	.	4E\	-ſe-	4b\	-se-	4gg\	-se-	.	.
!LO:LB:g=original	!	!	!	!	!	!	!	!	!	!	!	!	!
4A\	.	4a/	.	4ff#\	.	4A\	-re-	4a\	-re-	4ff#\	-re-	.	.
4A#X\	.	4g/	.	4ee\	.	4A#X\	-re	4g\	-re	4ee\	-re	.	.
=25	=25	=25	=25	=25	=25	=25	=25	=25	=25	=25	=25	=25	=25
4B\	.	4g/	.	4ee\	.	1B	no-	1g	no-	1ee	no-	1ryy	1ryy
4B\	.	4g/	.	4ee\	.	.	.	.	.	.	.	.	.
4B\	.	4g/	.	4ee\	.	.	.	.	.	.	.	.	.
4B\	.	4g/	.	4ee\	.	.	.	.	.	.	.	.	.
!	!	!	!	!	!	!	!	!	!	!LO:LB:g=original	!	!	!
=26	=26	=26	=26	=26	=26	=26	=26	=26	=26	=26	=26	=26	=26
4BB/	.	4f#/	.	4dd#X\	.	1BB	.	1f#	.	1dd#X	.	1ryy	1ryy
4BB/	.	4f#/	.	4dd#\	.	.	.	.	.	.	.	.	.
4BB/	.	4f#/	.	4dd#\	.	.	.	.	.	.	.	.	.
4BB/	.	4f#/	.	4dd#\	.	.	.	.	.	.	.	.	.
!	!	!LO:LB:g=original	!	!	!	!	!	!	!	!	!	!	!
=27	=27	=27	=27	=27	=27	=27	=27	=27	=27	=27	=27	=27	=27
2E\	.	2g/	.	2ee\	.	2E\	-bis	2g/	-bis	2ee\	-bis.	1ryy	1ryy
2r	.	2r	.	2r	.	2r	.	2r	.	2r	.	.	.
==	==	==	==	==	==	==	==	==	==	==	==	==	==
*-	*-	*-	*-	*-	*-	*-	*-	*-	*-	*-	*-	*-	*-
!!!system-decoration: [(g1)][(g2)][(g3)]g4
!!!ENC: Kamil Watkowski
!!!END: 2020-08-19
!!!EED: Jędrzej Mróz
!!!ESR: 2021-11-06
!!!RDF**kern: > = above
!!!RDF**kern: < = below
